web/ui/src/components/theme/button/svgs/copy.svg

<svg height="25" viewBox="0 0 24 25" width="24" xmlns="http://www.w3.org/2000/svg"><g fill="none" transform="translate(0 1)"><path d="m0 0h24v24h-24z" fill="#000" opacity="0"/><path d="m3.6125 21.4385h16.1205v1.4955h-16.1205zm-1.6125-16.449h1.6125v17.9445h-1.6125zm16.1205-2.9895h-11.283c-1.6125 0-1.6125 1.533-1.6125 1.533v14.9175c0 1.494 1.6125 1.494 1.6125 1.494h14.5065c1.6125 0 1.6125-1.494 1.6125-1.494v-11.9655zm-9.672 10.467h11.283v1.4955h-11.283zm0-2.991h11.283v1.4955h-11.283zm0 5.982h11.283v1.4955h-11.283zm9.672-8.973v-2.9895l3.222 2.991h-3.222z" fill="#595959"/></g></svg>

<?xml version="1.0" encoding="UTF-8"?>
<svg width="24px" height="25px" viewBox="0 0 24 25" version="1.1" xmlns="http://www.w3.org/2000/svg" xmlns:xlink="http://www.w3.org/1999/xlink">
    <title>复制</title>
    <g id="页面-1" stroke="none" stroke-width="1" fill="none" fill-rule="evenodd">
        <g id="建木自动化-详情（查看任务执行日志）" transform="translate(-1822.000000, -262.000000)" fill-rule="nonzero">
            <g id="编组-19" transform="translate(825.000000, -0.000000)">
                <g id="编组-52" transform="translate(23.000000, 220.000000)">
                    <g id="复制" transform="translate(974.000000, 43.000000)">
                        <rect id="矩形" fill="#000000" opacity="0" x="0" y="0" width="24" height="24"></rect>
                        <path d="M3.6125,21.4385 L19.733,21.4385 L19.733,22.934 L3.6125,22.934 L3.6125,21.4385 Z M2,4.9895 L3.6125,4.9895 L3.6125,22.934 L2,22.934 L2,4.9895 Z M18.1205,2 L6.8375,2 C5.225,2 5.225,3.533 5.225,3.533 L5.225,18.4505 C5.225,19.9445 6.8375,19.9445 6.8375,19.9445 L21.344,19.9445 C22.9565,19.9445 22.9565,18.4505 22.9565,18.4505 L22.9565,6.485 L18.1205,2 L18.1205,2 Z M8.4485,12.467 L19.7315,12.467 L19.7315,13.9625 L8.4485,13.9625 L8.4485,12.467 L8.4485,12.467 Z M8.4485,9.476 L19.7315,9.476 L19.7315,10.9715 L8.4485,10.9715 L8.4485,9.476 Z M8.4485,15.458 L19.7315,15.458 L19.7315,16.9535 L8.4485,16.9535 L8.4485,15.458 Z M18.1205,6.485 L18.1205,3.4955 L21.3425,6.4865 L18.1205,6.4865 L18.1205,6.485 L18.1205,6.485 Z" id="形状" fill="#595959"></path>
                    </g>
                </g>
            </g>
        </g>
    </g>
</svg>
